!!!COM: Johannes Brahms
!!!CNT: Deutscher
!!!TXO: Deutsche
!!!OTL: In der Ferne
!!!OPS: Op. 19
!!!ONM: No. 3
!!!LYR: Uhland
!!!ONB: Original key: originaltonart
!!!ENC: Ayako Kataoka        
!!!EED: Leigh VanHandel
!!!YOR: C.F. Peters, Brahms Lieder fu2r eine Singstimme mit Klavierbegleitung, Band III, ausgabe fu2r tiefere Stimme
!!!ODT: 1858/
!!NB: Vocal melody and text only encoded.
**kern	**silbe
*clefG2	*
*k[b-]	*
*M3/4	*
*MM[adagio]	*
!! tempo indication: L'istesso tempo
=1	=1
2r	.
{4d	{Will
=2	=2
(4d	ru-
4a)	|
4dd	-hen
=3	=3
4a	un-
4a	-ter
4ee	den
=4	=4
2a	Ba2u-
4ee	-men
=5	=5
2a}	hier,}
{4dd	{die
=6	=6
2dd	Vo2g-
4dd	-lein
=7	=7
4dd	ho2r
4cc	ich
4a	so
=8	=8
2g	ger-
4g}	-ne}
=13	=13
4r	.
4r	.
{4e	{Wie
=14	=14
*k[f#c#]	*
4f#	sin-
4e	-get
4d	ihr
=15	=15
(4f#	so
4e)	|
4d	zum
=16	=16
(4a	Her-
4g)	|
4f#	-zen
=17	=17
2b}	mir,}
{4g	{wie
=18	=18
4b	singt
4a	ihr
4g	zum
=19	=19
(4b	Her-
4a)	|
4g	-zen
=20	=20
2.ee}	mir?}
=21	=21
4r	.
4r	.
{4cc#	{Von
=22	=22
(4ee	uns-
4dd)	|
4cc#	-rer
=23	=23
4b	Lie-
4a	-be,
4g	was
=24	=24
2f#	wis-
4e	-set
=25	=25
2d	ihr
4f#	in
=26	=26
(4g	die-
4e)	|
4f#	-ser
=27	=27
(4g	wei-
4e)	|
4f#	-ten
=28	=28
2g	Fer-
4g}	-ne,}
=29	=29
4r	.
4r	.
{4e	{in
=30	=30
(4a	die-
4f#)	|
4g	-ser
=31	=31
(4a	wei-
4d)	|
4e	-ten
=32	=32
(2f#	Fer-
4e)	|
=33	=33
4f#}	-ne?}
4r	.
4r	.
=37	=37
4r	.
4r	.
{4a	{Will
=38	=38
(4d	ru-
4a)	|
4dd	-hen
=39	=39
4a	hier
4a	an
4ee	des
=40	=40
2a	Ba-
4ee	-ches
=41	=41
2a}	Rand,}
{4dd	{wo
=42	=42
4dd	duf-
4dd	ti-
4dd	-ge
=43	=43
(4dd	Blu2m-
4cc#)	|
4a	-lein
=44	=44
(2a	sprie-
4g#)	|
=45	=45
2a}	-ssen.}
4r	.
=47	=47
4r	.
4r	.
{4e	{Wer
=48	=48
(4f#	hat
4e)	|
4d	euch
=49	=49
4f#	Blu2m-
4e	-lein
4d	hie-
=50	=50
(4a	-her
4g)	|
4f#	ge-
=51	=51
2b}	-standt?}
{4g	{wer
=52	=52
4b	hat
4a	euch
4g	hie-
=53	=53
(4b	-her
4a)	|
4g	ge-
=54	= 54
2.ee}	-standt?}
=55	=55
4r	.
4r	.
{4cc#	{Seid
=56	=56
(4ee	ihr
4dd)	|
4cc#	ein
=57	=57
4b	herz-
4a	li-
4g	-ches
=58	=58
2f#	Lie-
4e	-bes-
=59	=59
4d	-pfand
4f#	aus
4f#	der
=60	=60
4g	Fer-
4e	-ne
4f#	von
=61	=61
(4g	mei-
4e)	|
4f#	-ner
=62	=62
2g	Su2-
4g}	-ssen?}
=63	=63
4r	.
{4f#	{aus
4e	der
=64	=64
4a	Fer-
4f#	-ne
4g	von
=65	=65
(4a	mei-
4d)	|
4e	-ner
=66	=66
(2f#	Su2-
4e)	|
=67	=67
2f#}	-ssen?}
4r	.
*-	*-
